; generated by Slic3r 0.9.11-dev on 2013-06-17 at 19:57:11

; layer_height = 0.4
; perimeters = 3
; top_solid_layers = 3
; bottom_solid_layers = 3
; fill_density = 0.4
; perimeter_speed = 30
; infill_speed = 60
; travel_speed = 130
; nozzle_diameter = 0.5
; filament_diameter = 1.75
; extrusion_multiplier = 1
; perimeters extrusion width = 0.50mm
; infill extrusion width = 0.53mm
; solid infill extrusion width = 0.53mm
; top infill extrusion width = 0.53mm
; first layer extrusion width = 0.70mm

G21 ; set units to millimeters
M107
M104 S200 ; set temperature
G28 ; home all axes
G1 Z5 F5000 ; lift nozzle
M109 S200 ; wait for temperature to be reached
G90 ; use absolute coordinates
G92 E0
M82 ; use absolute distances for extrusion
G1 F1800.000 E-1.00000
G92 E0
G1 Z0.350 F7800.000
G1 X-10.000 Y-16.660
G1 F1800.000 E1.00000
G1 X10.000 Y-16.660 F540.000 E2.91227
G1 X11.300 Y-16.530 E3.03719
G1 X12.550 Y-16.150 E3.16211
G1 X13.700 Y-15.540 E3.28658
G1 X14.710 Y-14.710 E3.41157
G1 X15.540 Y-13.700 E3.53657
G1 X16.150 Y-12.550 E3.66103
G1 X16.530 Y-11.300 E3.78595
G1 X16.660 Y-10.000 E3.91087
G1 X16.660 Y10.000 E5.82314
G1 X16.530 Y11.300 E5.94806
G1 X16.150 Y12.550 E6.07298
G1 X15.540 Y13.700 E6.19744
G1 X14.710 Y14.710 E6.32244
G1 X13.700 Y15.540 E6.44743
G1 X12.550 Y16.150 E6.57190
G1 X11.300 Y16.530 E6.69682
G1 X10.000 Y16.660 E6.82174
G1 X-10.000 Y16.660 E8.73401
G1 X-11.300 Y16.530 E8.85893
G1 X-12.550 Y16.150 E8.98384
G1 X-13.700 Y15.540 E9.10831
G1 X-14.710 Y14.710 E9.23331
G1 X-15.540 Y13.700 E9.35830
G1 X-16.150 Y12.550 E9.48277
G1 X-16.530 Y11.300 E9.60768
G1 X-16.660 Y10.000 E9.73260
G1 X-16.660 Y-10.000 E11.64488
G1 X-16.530 Y-11.300 E11.76979
G1 X-16.150 Y-12.550 E11.89471
G1 X-15.540 Y-13.700 E12.01918
G1 X-14.710 Y-14.710 E12.14417
G1 X-13.700 Y-15.540 E12.26917
G1 X-12.550 Y-16.150 E12.39363
G1 X-11.300 Y-16.530 E12.51855
G1 X-10.098 Y-16.650 E12.63405
G1 F1800.000 E11.63405
G92 E0
G1 X-8.357 Y-8.357 F7800.000
G1 F1800.000 E1.00000
G1 X8.357 Y-8.357 F540.000 E2.59814
G1 X8.357 Y8.357 E4.19629
G1 X-8.357 Y8.357 E5.79443
G1 X-8.357 Y-8.259 E7.38316
G1 X-9.014 Y-9.014 F7800.000
G1 X9.014 Y-9.014 F540.000 E9.10695
G1 X9.014 Y9.014 E10.83075
G1 X-9.014 Y9.014 E12.55454
G1 X-9.014 Y-8.916 E14.26892
G1 X-9.671 Y-9.671 F7800.000
G1 X9.671 Y-9.671 F378.000 E16.11837
G1 X9.671 Y9.671 E17.96781
G1 X-9.671 Y9.671 E19.81726
G1 X-9.671 Y-9.573 E21.65729
G1 X-9.102 Y-9.343 F7800.000
G1 X7.204 Y-7.881
G1 X7.881 Y-7.204 F1080.000 E21.75018
G1 X7.881 Y-6.261 E21.84164
G1 X6.261 Y-7.881 E22.06387
G1 X5.318 Y-7.881 E22.15533
G1 X7.881 Y-5.318 E22.50692
G1 X7.881 Y-4.376 E22.59838
G1 X4.376 Y-7.881 E23.07930
G1 X3.433 Y-7.881 E23.17076
G1 X7.881 Y-3.433 E23.78104
G1 X7.881 Y-2.490 E23.87250
G1 X2.490 Y-7.881 E24.61211
G1 X1.547 Y-7.881 E24.70358
G1 X7.881 Y-1.547 E25.57254
G1 X7.881 Y-0.604 E25.66400
G1 X0.604 Y-7.881 E26.66231
G1 X-0.339 Y-7.881 E26.75377
G1 X7.881 Y0.339 E27.88142
G1 X7.881 Y1.281 E27.97288
G1 X-1.281 Y-7.881 E29.22988
G1 X-2.224 Y-7.881 E29.32134
G1 X7.881 Y2.224 E30.70768
G1 X7.881 Y3.167 E30.79914
G1 X-3.167 Y-7.881 E32.31483
G1 X-4.110 Y-7.881 E32.40629
G1 X7.881 Y4.110 E34.05133
G1 X7.881 Y5.053 E34.14279
G1 X-5.053 Y-7.881 E35.91717
G1 X-5.995 Y-7.881 E36.00863
G1 X7.881 Y5.995 E37.91235
G1 X7.881 Y6.938 E38.00381
G1 X-6.938 Y-7.881 E40.03688
G1 X-7.881 Y-7.881 E40.12834
G1 X7.881 Y7.881 E42.29076
G1 X6.938 Y7.881 E42.38222
G1 X-7.881 Y-6.938 E44.41529
G1 X-7.881 Y-5.995 E44.50675
G1 X5.995 Y7.881 E46.41049
G1 X5.053 Y7.881 E46.50195
G1 X-7.881 Y-5.053 E48.27633
G1 X-7.881 Y-4.110 E48.36779
G1 X4.110 Y7.881 E50.01284
G1 X3.167 Y7.881 E50.10430
G1 X-7.881 Y-3.167 E51.61999
G1 X-7.881 Y-2.224 E51.71145
G1 X2.224 Y7.881 E53.09780
G1 X1.281 Y7.881 E53.18927
G1 X-7.881 Y-1.281 E54.44627
G1 X-7.881 Y-0.339 E54.53773
G1 X0.339 Y7.881 E55.66539
G1 X-0.604 Y7.881 E55.75685
G1 X-7.881 Y0.604 E56.75517
G1 X-7.881 Y1.547 E56.84663
G1 X-1.547 Y7.881 E57.71560
G1 X-2.490 Y7.881 E57.80706
G1 X-7.881 Y2.490 E58.54668
G1 X-7.881 Y3.433 E58.63815
G1 X-3.433 Y7.881 E59.24843
G1 X-4.375 Y7.881 E59.33989
G1 X-7.881 Y4.375 E59.82082
G1 X-7.881 Y5.318 E59.91228
G1 X-5.318 Y7.881 E60.26387
G1 X-6.261 Y7.881 E60.35533
G1 X-7.881 Y6.261 E60.57758
G1 X-7.881 Y7.204 E60.66904
G1 X-7.204 Y7.881 E60.76193
M106 S255
G1 F1800.000 E59.76193
G92 E0
G1 Z0.750 F7800.000
G1 X-8.750 Y8.750
G1 F1800.000 E1.00000
G1 X-8.750 Y-8.750 F1077.242 E2.45513
G1 X8.750 Y-8.750 E3.91026
G1 X8.750 Y8.750 E5.36539
G1 X-8.675 Y8.750 E6.81429
G1 X-9.250 Y9.250 F7800.000
G1 X-9.250 Y-9.250 F1077.242 E8.35257
G1 X9.250 Y-9.250 E9.89085
G1 X9.250 Y9.250 E11.42913
G1 X-9.175 Y9.250 E12.96118
G1 X-9.750 Y9.750 F7800.000
G1 X-9.750 Y-9.750 F754.069 E14.58261
G1 X9.750 Y-9.750 E16.20404
G1 X9.750 Y9.750 E17.82547
G1 X-9.675 Y9.750 E19.44067
G1 X-9.500 Y9.317 F7800.000
G1 X-8.383 Y-7.895
G1 X-7.895 Y-8.383 F2154.484 E19.50106
G1 X-7.151 Y-8.383 E19.56621
G1 X-8.383 Y-7.151 E19.71874
G1 X-8.383 Y-6.407 E19.78389
G1 X-6.407 Y-8.383 E20.02855
G1 X-5.662 Y-8.383 E20.09370
G1 X-8.383 Y-5.662 E20.43050
G1 X-8.383 Y-4.918 E20.49565
G1 X-4.918 Y-8.383 E20.92458
G1 X-4.174 Y-8.383 E20.98973
G1 X-8.383 Y-4.174 E21.51079
G1 X-8.383 Y-3.429 E21.57594
G1 X-3.429 Y-8.383 E22.18914
G1 X-2.685 Y-8.383 E22.25429
G1 X-8.383 Y-2.685 E22.95962
G1 X-8.383 Y-1.941 E23.02477
G1 X-1.941 Y-8.383 E23.82223
G1 X-1.196 Y-8.383 E23.88738
G1 X-8.383 Y-1.196 E24.77698
G1 X-8.383 Y-0.452 E24.84213
G1 X-0.452 Y-8.383 E25.82386
G1 X0.292 Y-8.383 E25.88901
G1 X-8.383 Y0.292 E26.96288
G1 X-8.383 Y1.037 E27.02802
G1 X1.037 Y-8.383 E28.19402
G1 X1.781 Y-8.383 E28.25917
G1 X-8.383 Y1.781 E29.51731
G1 X-8.383 Y2.525 E29.58245
G1 X2.525 Y-8.383 E30.93272
G1 X3.270 Y-8.383 E30.99787
G1 X-8.383 Y3.270 E32.44027
G1 X-8.383 Y4.014 E32.50542
G1 X4.014 Y-8.383 E34.03996
G1 X4.758 Y-8.383 E34.10510
G1 X-8.383 Y4.758 E35.73177
G1 X-8.383 Y5.503 E35.79692
G1 X5.503 Y-8.383 E37.51572
G1 X6.247 Y-8.383 E37.58087
G1 X-8.383 Y6.247 E39.39181
G1 X-8.383 Y6.991 E39.45696
G1 X6.991 Y-8.383 E41.36003
G1 X7.736 Y-8.383 E41.42517
G1 X-8.383 Y7.736 E43.42038
G1 X-8.287 Y8.383 E43.47769
G1 X8.383 Y-8.287 E45.54110
G1 X8.383 Y-7.542 E45.60625
G1 X-7.542 Y8.383 E47.57753
G1 X-6.798 Y8.383 E47.64267
G1 X8.383 Y-6.798 E49.52182
G1 X8.383 Y-6.054 E49.58696
G1 X-6.054 Y8.383 E51.37397
G1 X-5.309 Y8.383 E51.43912
G1 X8.383 Y-5.309 E53.13400
G1 X8.383 Y-4.565 E53.19914
G1 X-4.565 Y8.383 E54.80188
G1 X-3.821 Y8.383 E54.86703
G1 X8.383 Y-3.821 E56.37764
G1 X8.383 Y-3.076 E56.44279
G1 X-3.076 Y8.383 E57.86126
G1 X-2.332 Y8.383 E57.92641
G1 X8.383 Y-2.332 E59.25275
G1 X8.383 Y-1.588 E59.31790
G1 X-1.588 Y8.383 E60.55210
G1 X-0.843 Y8.383 E60.61725
G1 X8.383 Y-0.843 E61.75932
G1 X8.383 Y-0.099 E61.82447
G1 X-0.099 Y8.383 E62.87441
G1 X0.645 Y8.383 E62.93956
G1 X8.383 Y0.645 E63.89736
G1 X8.383 Y1.390 E63.96251
G1 X1.390 Y8.383 E64.82818
G1 X2.134 Y8.383 E64.89333
G1 X8.383 Y2.134 E65.66687
G1 X8.383 Y2.878 E65.73202
G1 X2.878 Y8.383 E66.41342
G1 X3.623 Y8.383 E66.47857
G1 X8.383 Y3.623 E67.06784
G1 X8.383 Y4.367 E67.13299
G1 X4.367 Y8.383 E67.63013
G1 X5.111 Y8.383 E67.69527
G1 X8.383 Y5.111 E68.10028
G1 X8.383 Y5.856 E68.16543
G1 X5.856 Y8.383 E68.47830
G1 X6.600 Y8.383 E68.54344
G1 X8.383 Y6.600 E68.76418
G1 X8.383 Y7.344 E68.82933
G1 X7.344 Y8.383 E68.95793
G1 X8.089 Y8.383 E69.02308
G1 X8.383 Y8.089 E69.05955
G1 F1800.000 E68.05955
G92 E0
G1 Z1.150 F7800.000
G1 X8.750 Y8.750
G1 F1800.000 E1.00000
G1 X-8.750 Y8.750 F1077.468 E2.45513
G1 X-8.750 Y-8.750 E3.91026
G1 X8.750 Y-8.750 E5.36539
G1 X8.750 Y8.675 E6.81429
G1 X9.250 Y9.250 F7800.000
G1 X-9.250 Y9.250 F1077.468 E8.35257
G1 X-9.250 Y-9.250 E9.89085
G1 X9.250 Y-9.250 E11.42913
G1 X9.250 Y9.175 E12.96118
G1 X9.750 Y9.750 F7800.000
G1 X-9.750 Y9.750 F754.228 E14.58261
G1 X-9.750 Y-9.750 E16.20404
G1 X9.750 Y-9.750 E17.82547
G1 X9.750 Y9.675 E19.44067
G1 X9.317 Y9.500 F7800.000
G1 X-7.992 Y8.383
G1 X-8.383 Y7.992 F2154.936 E19.48910
G1 X-8.383 Y7.248 E19.55425
G1 X-7.248 Y8.383 E19.69483
G1 X-6.503 Y8.383 E19.75997
G1 X-8.383 Y6.503 E19.99268
G1 X-8.383 Y5.759 E20.05783
G1 X-5.759 Y8.383 E20.38267
G1 X-5.015 Y8.383 E20.44782
G1 X-8.383 Y5.015 E20.86479
G1 X-8.383 Y4.270 E20.92994
G1 X-4.270 Y8.383 E21.43905
G1 X-3.526 Y8.383 E21.50419
G1 X-8.383 Y3.526 E22.10543
G1 X-8.383 Y2.782 E22.17058
G1 X-2.782 Y8.383 E22.86396
G1 X-2.037 Y8.383 E22.92911
G1 X-8.383 Y2.037 E23.71461
G1 X-8.383 Y1.293 E23.77976
G1 X-1.293 Y8.383 E24.65740
G1 X-0.549 Y8.383 E24.72255
G1 X-8.383 Y0.549 E25.69233
G1 X-8.383 Y-0.196 E25.75748
G1 X0.196 Y8.383 E26.81938
G1 X0.940 Y8.383 E26.88453
G1 X-8.383 Y-0.940 E28.03858
G1 X-8.383 Y-1.684 E28.10372
G1 X1.684 Y8.383 E29.34990
G1 X2.429 Y8.383 E29.41505
G1 X-8.383 Y-2.429 E30.75336
G1 X-8.383 Y-3.173 E30.81851
G1 X3.173 Y8.383 E32.24895
G1 X3.917 Y8.383 E32.31410
G1 X-8.383 Y-3.917 E33.83668
G1 X-8.383 Y-4.662 E33.90183
G1 X4.662 Y8.383 E35.51654
G1 X5.406 Y8.383 E35.58168
G1 X-8.383 Y-5.406 E37.28853
G1 X-8.383 Y-6.150 E37.35368
G1 X6.150 Y8.383 E39.15266
G1 X6.895 Y8.383 E39.21780
G1 X-8.383 Y-6.895 E41.10892
G1 X-8.383 Y-7.639 E41.17407
G1 X7.639 Y8.383 E43.15731
G1 X8.383 Y8.383 E43.22245
G1 X-8.383 Y-8.383 E45.29782
G1 X-7.639 Y-8.383 E45.36297
G1 X8.383 Y7.639 E47.34620
G1 X8.383 Y6.895 E47.41135
G1 X-6.895 Y-8.383 E49.30245
G1 X-6.150 Y-8.383 E49.36760
G1 X8.383 Y6.150 E51.16656
G1 X8.383 Y5.406 E51.23171
G1 X-5.406 Y-8.383 E52.93855
G1 X-4.662 Y-8.383 E53.00369
G1 X8.383 Y4.662 E54.61839
G1 X8.383 Y3.917 E54.68354
G1 X-3.917 Y-8.383 E56.20611
G1 X-3.173 Y-8.383 E56.27125
G1 X8.383 Y3.173 E57.70168
G1 X8.383 Y2.429 E57.76683
G1 X-2.429 Y-8.383 E59.10513
G1 X-1.684 Y-8.383 E59.17028
G1 X8.383 Y1.684 E60.41644
G1 X8.383 Y0.940 E60.48159
G1 X-0.940 Y-8.383 E61.63562
G1 X-0.196 Y-8.383 E61.70077
G1 X8.383 Y0.196 E62.76267
G1 X8.383 Y-0.549 E62.82781
G1 X0.549 Y-8.383 E63.79758
G1 X1.293 Y-8.383 E63.86272
G1 X8.383 Y-1.293 E64.74035
G1 X8.383 Y-2.037 E64.80550
G1 X2.037 Y-8.383 E65.59100
G1 X2.782 Y-8.383 E65.65615
G1 X8.383 Y-2.782 E66.34951
G1 X8.383 Y-3.526 E66.41466
G1 X3.526 Y-8.383 E67.01588
G1 X4.270 Y-8.383 E67.08103
G1 X8.383 Y-4.270 E67.59013
G1 X8.383 Y-5.015 E67.65527
G1 X5.015 Y-8.383 E68.07223
G1 X5.759 Y-8.383 E68.13738
G1 X8.383 Y-5.759 E68.46221
G1 X8.383 Y-6.503 E68.52736
G1 X6.503 Y-8.383 E68.76005
G1 X7.248 Y-8.383 E68.82520
G1 X8.383 Y-7.248 E68.96576
G1 X8.383 Y-7.992 E69.03091
G1 X7.992 Y-8.383 E69.07933
G1 F1800.000 E68.07933
G92 E0
G1 Z1.550 F7800.000
G1 X8.750 Y-8.750
G1 F1800.000 E1.00000
G1 X8.750 Y8.750 F794.231 E2.45513
G1 X-8.750 Y8.750 E3.91026
G1 X-8.750 Y-8.750 E5.36539
G1 X8.675 Y-8.750 E6.81429
G1 X9.250 Y-9.250 F7800.000
G1 X9.250 Y9.250 F794.231 E8.35257
G1 X-9.250 Y9.250 E9.89085
G1 X-9.250 Y-9.250 E11.42913
G1 X9.175 Y-9.250 E12.96118
G1 X9.750 Y-9.750 F7800.000
G1 X9.750 Y9.750 F600.000 E14.58261
G1 X-9.750 Y9.750 E16.20404
G1 X-9.750 Y-9.750 E17.82547
G1 X9.675 Y-9.750 E19.44067
G1 X9.500 Y-9.317 F7800.000
G1 X8.383 Y-7.583
G1 X8.293 Y-7.674 F1588.463 E19.45173
G1 X7.423 Y-7.441 E19.52950
G1 X6.481 Y-8.383 E19.64467
G1 X4.644 Y-8.383 E19.80343
G1 X4.914 Y-8.113 E19.83641
G1 X5.783 Y-8.346 E19.91419
G1 X7.056 Y-7.073 E20.06975
G1 X6.823 Y-6.204 E20.14752
G1 X8.096 Y-4.931 E20.30308
G1 X8.383 Y-5.008 E20.32879
G1 X8.383 Y-2.807 E20.51904
G1 X7.495 Y-3.694 E20.62754
G1 X7.728 Y-4.564 E20.70532
G1 X6.455 Y-5.836 E20.86087
G1 X5.586 Y-5.604 E20.93865
G1 X4.313 Y-6.876 E21.09420
G1 X4.546 Y-7.746 E21.17198
G1 X3.909 Y-8.383 E21.24987
G1 X2.027 Y-8.383 E21.41248
G1 X1.804 Y-7.549 E21.48711
G1 X3.076 Y-6.276 E21.64267
G1 X3.946 Y-6.509 E21.72044
G1 X5.219 Y-5.236 E21.87600
G1 X4.986 Y-4.367 E21.95377
G1 X6.258 Y-3.094 E22.10933
G1 X7.128 Y-3.327 E22.18710
G1 X8.383 Y-2.072 E22.34051
G1 X8.383 Y-1.988 E22.34771
G1 X8.168 Y-1.185 E22.41960
G1 X8.383 Y-0.969 E22.44592
G1 X8.383 Y-0.234 E22.50943
G1 X7.800 Y-0.817 E22.58065
G1 X6.931 Y-0.584 E22.65842
G1 X5.658 Y-1.857 E22.81398
G1 X5.891 Y-2.726 E22.89175
G1 X4.618 Y-3.999 E23.04731
G1 X3.749 Y-3.766 E23.12508
G1 X2.476 Y-5.039 E23.28064
G1 X2.709 Y-5.909 E23.35842
G1 X1.436 Y-7.181 E23.51397
G1 X0.567 Y-6.948 E23.59175
G1 X-0.706 Y-8.221 E23.74730
G1 X-0.663 Y-8.383 E23.76178
G1 X-2.705 Y-8.383 E23.93826
G1 X-1.943 Y-7.621 E24.03141
G1 X-1.074 Y-7.854 E24.10919
G1 X0.199 Y-6.581 E24.26474
G1 X-0.034 Y-5.712 E24.34252
G1 X1.239 Y-4.439 E24.49807
G1 X2.109 Y-4.672 E24.57585
G1 X3.381 Y-3.399 E24.73140
G1 X3.148 Y-2.530 E24.80918
G1 X4.421 Y-1.257 E24.96473
G1 X5.291 Y-1.490 E25.04251
G1 X6.564 Y-0.217 E25.19806
G1 X6.331 Y0.653 E25.27584
G1 X7.603 Y1.925 E25.43140
G1 X8.383 Y1.716 E25.50115
G1 X8.383 Y4.406 F7800.000
G1 X8.276 Y4.435 F1588.463 E25.51074
G1 X7.003 Y3.162 E25.66630
G1 X7.236 Y2.293 E25.74407
G1 X5.963 Y1.020 E25.89963
G1 X5.094 Y1.253 E25.97740
G1 X3.821 Y-0.020 E26.13296
G1 X4.054 Y-0.889 E26.21073
G1 X2.781 Y-2.162 E26.36629
G1 X1.912 Y-1.929 E26.44407
G1 X0.639 Y-3.202 E26.59962
G1 X0.872 Y-4.071 E26.67740
G1 X-0.401 Y-5.344 E26.83295
G1 X-1.270 Y-5.111 E26.91073
G1 X-2.543 Y-6.384 E27.06628
G1 X-2.310 Y-7.253 E27.14406
G1 X-3.440 Y-8.383 E27.28211
G1 X-4.118 Y-8.383 E27.34068
G1 X-4.453 Y-8.293 E27.37063
G1 X-4.542 Y-8.383 E27.38160
G1 X-5.277 Y-8.383 E27.44510
G1 X-4.820 Y-7.926 E27.50097
G1 X-5.053 Y-7.057 E27.57875
G1 X-3.780 Y-5.784 E27.73430
G1 X-2.911 Y-6.017 E27.81208
G1 X-1.638 Y-4.744 E27.96763
G1 X-1.871 Y-3.874 E28.04541
G1 X-0.598 Y-2.602 E28.20096
G1 X0.271 Y-2.835 E28.27874
G1 X1.544 Y-1.562 E28.43430
G1 X1.311 Y-0.692 E28.51207
G1 X2.584 Y0.580 E28.66763
G1 X3.453 Y0.348 E28.74540
G1 X4.726 Y1.620 E28.90096
G1 X4.493 Y2.490 E28.97873
G1 X5.766 Y3.763 E29.13429
G1 X6.636 Y3.530 E29.21207
G1 X7.908 Y4.802 E29.36762
G1 X7.675 Y5.672 E29.44540
G1 X8.383 Y6.379 E29.53187
G1 X8.383 Y7.114 E29.59538
G1 X7.308 Y6.039 E29.72676
G1 X6.439 Y6.272 E29.80454
G1 X5.166 Y4.999 E29.96009
G1 X5.399 Y4.130 E30.03787
G1 X4.126 Y2.857 E30.19342
G1 X3.257 Y3.090 E30.27120
G1 X1.984 Y1.817 E30.42675
G1 X2.217 Y0.948 E30.50453
G1 X0.944 Y-0.325 E30.66008
G1 X0.074 Y-0.092 E30.73786
G1 X-1.198 Y-1.365 E30.89341
G1 X-0.965 Y-2.234 E30.97119
G1 X-2.238 Y-3.507 E31.12675
G1 X-3.108 Y-3.274 E31.20452
G1 X-4.380 Y-4.547 E31.36008
G1 X-4.148 Y-5.416 E31.43785
G1 X-5.420 Y-6.689 E31.59341
G1 X-6.290 Y-6.456 E31.67118
G1 X-7.563 Y-7.729 E31.82674
G1 X-7.387 Y-8.383 E31.88525
G1 X-8.383 Y-7.240 E32.01625
G1 X-7.930 Y-7.362 E32.05678
G1 X-6.657 Y-6.089 E32.21234
G1 X-6.890 Y-5.219 E32.29011
G1 X-5.617 Y-3.947 E32.44567
G1 X-4.748 Y-4.179 E32.52345
G1 X-3.475 Y-2.907 E32.67900
G1 X-3.708 Y-2.037 E32.75678
G1 X-2.435 Y-0.764 E32.91233
G1 X-1.566 Y-0.997 E32.99011
G1 X-0.293 Y0.275 E33.14566
G1 X-0.526 Y1.145 E33.22344
G1 X0.747 Y2.418 E33.37899
G1 X1.616 Y2.185 E33.45677
G1 X2.889 Y3.458 E33.61232
G1 X2.656 Y4.327 E33.69010
G1 X3.929 Y5.600 E33.84565
G1 X4.798 Y5.367 E33.92343
G1 X6.071 Y6.640 E34.07899
G1 X5.838 Y7.509 E34.15676
G1 X6.712 Y8.383 E34.26358
G1 X5.978 Y8.383 E34.32709
G1 X5.471 Y7.876 E34.38900
G1 X4.601 Y8.109 E34.46678
G1 X3.329 Y6.837 E34.62234
G1 X3.562 Y5.967 E34.70011
G1 X2.289 Y4.694 E34.85567
G1 X1.419 Y4.927 E34.93344
G1 X0.147 Y3.654 E35.08900
G1 X0.380 Y2.785 E35.16678
G1 X-0.893 Y1.512 E35.32233
G1 X-1.763 Y1.745 E35.40011
G1 X-3.036 Y0.472 E35.55566
G1 X-2.803 Y-0.397 E35.63344
G1 X-4.075 Y-1.670 E35.78899
G1 X-4.945 Y-1.437 E35.86677
G1 X-6.218 Y-2.710 E36.02232
G1 X-5.985 Y-3.579 E36.10010
G1 X-7.258 Y-4.852 E36.25565
G1 X-8.127 Y-4.619 E36.33343
G1 X-8.383 Y-4.875 E36.36474
G1 X-8.383 Y-3.038 E36.52350
G1 X-7.454 Y-2.109 E36.63699
G1 X-6.585 Y-2.342 E36.71477
G1 X-5.312 Y-1.069 E36.87032
G1 X-5.545 Y-0.200 E36.94810
G1 X-4.272 Y1.073 E37.10365
G1 X-3.403 Y0.840 E37.18143
G1 X-2.130 Y2.113 E37.33698
G1 X-2.363 Y2.982 E37.41476
G1 X-1.090 Y4.255 E37.57031
G1 X-0.221 Y4.022 E37.64809
G1 X1.052 Y5.295 E37.80365
G1 X0.819 Y6.164 E37.88142
G1 X2.092 Y7.437 E38.03698
G1 X2.961 Y7.204 E38.11475
G1 X4.140 Y8.383 E38.25885
G1 X1.569 Y8.383 E38.48102
G1 X1.724 Y7.804 E38.53280
G1 X0.452 Y6.532 E38.68835
G1 X-0.418 Y6.764 E38.76613
