; generated by Slic3r 0.9.10 on 2013-06-15 at 18:42:16

; layer_height = 0.4
; perimeters = 3
; top_solid_layers = 3
; bottom_solid_layers = 3
; fill_density = 0.4
; perimeter_speed = 30
; infill_speed = 60
; travel_speed = 130
; nozzle_diameter = 0.5
; filament_diameter = 1.75
; extrusion_multiplier = 1
; perimeters extrusion width = 0.53mm
; infill extrusion width = 0.53mm
; solid infill extrusion width = 0.53mm
; top infill extrusion width = 0.53mm
; first layer extrusion width = 0.70mm

G21 ; set units to millimeters
M107
M104 S200 ; set temperature
G28 ; home all axes
G1 Z5 F5000 ; lift nozzle

M109 S200 ; wait for temperature to be reached
G90 ; use absolute coordinates
G92 E0
M82 ; use absolute distances for extrusion
G1 F1800.000 E-1.00000
G92 E0
G1 Z0.350 F7800.000
G1 X18.803 Y24.246
G1 F1800.000 E1.00000
G1 X17.553 Y26.406 F540.000 E1.23862
G1 X17.173 Y26.996 E1.30572
G1 X16.733 Y27.536 E1.37232
G1 X15.053 Y29.406 E1.61267
G1 X14.553 Y29.906 E1.68028
G1 X14.003 Y30.346 E1.74763
G1 X11.973 Y31.816 E1.98727
G1 X11.403 Y32.186 E2.05224
G1 X-3.317 Y40.686 E3.67747
G1 X-4.087 Y41.066 E3.75957
G1 X-6.507 Y42.076 E4.01030
G1 X-7.277 Y42.346 E4.08832
G1 X-8.067 Y42.516 E4.16558
G1 X-10.707 Y42.916 E4.42088
G1 X-11.487 Y42.986 E4.49576
G1 X-12.257 Y42.966 E4.56941
G1 X-15.007 Y42.736 E4.83327
G1 X-15.747 Y42.636 E4.90466
G1 X-16.457 Y42.456 E4.97470
G1 X-19.187 Y41.596 E5.24837
G1 X-19.807 Y41.366 E5.31160
G1 X-20.407 Y41.076 E5.37531
G1 X-23.017 Y39.636 E5.66033
G1 X-23.547 Y39.306 E5.72002
G1 X-24.047 Y38.926 E5.78007
G1 X-26.407 Y36.966 E6.07339
G1 X-26.857 Y36.566 E6.13096
G1 X-27.257 Y36.116 E6.18852
G1 X-29.267 Y33.716 E6.48784
G1 X-29.927 Y32.786 E6.59688
G1 X-31.507 Y30.066 E6.89764
G1 X-31.777 Y29.546 E6.95367
G1 X-32.007 Y28.996 E7.01067
G1 X-33.077 Y26.046 E7.31071
G1 X-33.257 Y25.476 E7.36786
G1 X-33.377 Y24.886 E7.42543
G1 X-33.887 Y21.866 E7.71827
G1 X-33.967 Y21.256 E7.77709
G1 X-33.987 Y20.646 E7.83545
G1 X-33.937 Y17.666 E8.12042
G1 X-33.887 Y16.986 E8.18561
G1 X-33.767 Y16.306 E8.25163
G1 X-33.137 Y13.516 E8.52511
G1 X-32.947 Y12.826 E8.59354
G1 X-32.677 Y12.166 E8.66172
G1 X-31.507 Y9.666 E8.92564
G1 X-31.247 Y9.156 E8.98037
G1 X-7.297 Y-32.334 E13.56088
G1 X-6.987 Y-32.814 E13.61551
G1 X-5.407 Y-35.074 E13.87917
G1 X-4.957 Y-35.644 E13.94861
G1 X-4.457 Y-36.164 E14.01758
G1 X-2.347 Y-38.104 E14.29164
G1 X-1.837 Y-38.524 E14.35481
G1 X-1.287 Y-38.894 E14.41819
G1 X1.223 Y-40.414 E14.69875
G1 X1.783 Y-40.724 E14.75995
G1 X2.363 Y-40.964 E14.81997
G1 X5.283 Y-42.044 E15.11765
G1 X5.853 Y-42.234 E15.17510
G1 X6.443 Y-42.364 E15.23286
G1 X9.523 Y-42.904 E15.53184
G1 X10.093 Y-42.974 E15.58675
G1 X10.673 Y-43.004 E15.64228
G1 X13.823 Y-43.004 E15.94347
G1 X14.403 Y-42.974 E15.99900
G1 X14.973 Y-42.904 E16.05390
G1 X18.053 Y-42.364 E16.35289
G1 X18.633 Y-42.234 E16.40972
G1 X19.203 Y-42.054 E16.46687
G1 X22.083 Y-40.994 E16.76030
G1 X22.663 Y-40.744 E16.82069
G1 X23.223 Y-40.444 E16.88143
G1 X25.773 Y-38.904 E17.16626
G1 X26.323 Y-38.534 E17.22964
G1 X26.843 Y-38.104 E17.29415
G1 X28.953 Y-36.164 E17.56821
G1 X29.463 Y-35.644 E17.63785
G1 X29.913 Y-35.064 E17.70804
G1 X31.463 Y-32.834 E17.96771
G1 X31.863 Y-32.184 E18.04068
G1 X32.183 Y-31.494 E18.11340
G1 X33.183 Y-28.974 E18.37263
G1 X33.443 Y-28.174 E18.45306
G1 X33.593 Y-27.354 E18.53276
G1 X33.923 Y-24.754 E18.78335
G1 X33.983 Y-23.914 E18.86387
G1 X33.983 Y-6.914 E20.48930
G1 X33.943 Y-6.224 E20.55539
G1 X33.683 Y-3.734 E20.79476
G1 X33.573 Y-3.034 E20.86251
G1 X33.393 Y-2.354 E20.92977
G1 X32.613 Y0.036 E21.17015
G1 X32.363 Y0.676 E21.23584
G1 X32.053 Y1.296 E21.30212
G1 X18.852 Y24.161 E23.82648
G1 F1800.000 E22.82648
G92 E0
G1 X13.595 Y-21.279 F7800.000
G1 F1800.000 E1.00000
G1 X10.909 Y-21.279 F540.000 E1.25681
G1 X8.489 Y-22.444 E1.51361
G1 X6.815 Y-24.544 E1.77040
G1 X6.217 Y-27.162 E2.02720
G1 X6.815 Y-29.781 E2.28400
G1 X8.489 Y-31.881 E2.54079
G1 X10.909 Y-33.046 E2.79760
G1 X13.595 Y-33.046 E3.05440
G1 X15.654 Y-32.054 E3.27289
G1 X16.015 Y-31.881 E3.31120
G1 X17.689 Y-29.781 E3.56800
G1 X18.287 Y-27.162 E3.82480
G1 X17.689 Y-24.544 E4.08160
G1 X16.015 Y-22.444 E4.33840
G1 X13.684 Y-21.321 E4.58577
G1 X13.445 Y-21.936 F7800.000
G1 X11.059 Y-21.936 F540.000 E4.81390
G1 X8.910 Y-22.971 E5.04202
G1 X7.422 Y-24.836 E5.27013
G1 X6.891 Y-27.162 E5.49825
G1 X7.422 Y-29.488 E5.72637
G1 X8.910 Y-31.354 E5.95449
G1 X11.059 Y-32.389 E6.18262
G1 X13.445 Y-32.389 E6.41074
G1 X15.369 Y-31.462 E6.61489
G1 X15.595 Y-31.354 E6.63886
G1 X17.082 Y-29.488 E6.86698
G1 X17.613 Y-27.162 E7.09510
G1 X17.082 Y-24.836 E7.32322
G1 X15.595 Y-22.971 E7.55134
G1 X13.534 Y-21.979 E7.77004
G1 X13.295 Y-22.593 F7800.000
G1 X11.209 Y-22.593 F540.000 E7.96948
G1 X9.330 Y-23.498 E8.16892
G1 X8.029 Y-25.129 E8.36836
G1 X7.565 Y-27.162 E8.56780
G1 X8.029 Y-29.196 E8.76724
G1 X9.330 Y-30.827 E8.96668
G1 X11.209 Y-31.732 E9.16612
G1 X13.295 Y-31.732 E9.36557
G1 X15.084 Y-30.870 E9.55538
G1 X15.174 Y-30.827 E9.56501
G1 X16.475 Y-29.196 E9.76445
G1 X16.939 Y-27.162 E9.96389
G1 X16.475 Y-25.129 E10.16333
G1 X15.174 Y-23.498 E10.36277
G1 X13.384 Y-22.636 E10.55279
G1 X12.885 Y-23.107 F7800.000
G1 F1800.000 E9.55279
G92 E0
G1 X9.172 Y-7.164 F7800.000
G1 F1800.000 E1.00000
G1 X7.437 Y-4.158 F540.000 E1.33188
G1 X14.303 Y-0.194 E2.08998
G1 X15.353 Y-2.012 E2.29077
G1 X19.398 Y0.323 E2.73740
G1 X10.563 Y15.627 E4.42701
G1 X6.517 Y13.291 E4.87365
G1 X7.667 Y11.300 E5.09356
G1 X0.801 Y7.335 E5.85166
G1 X-0.970 Y10.403 E6.19032
G1 X-5.037 Y1.337 E7.14036
G1 X2.146 Y0.515 E7.83169
G1 X-0.787 Y-6.024 E8.51696
G1 X9.074 Y-7.153 E9.46599
G1 X7.951 Y-6.363 F7800.000
G1 X6.539 Y-3.918 F378.000 E9.73597
G1 X14.544 Y0.704 E10.61972
G1 X15.594 Y-1.115 E10.82051
G1 X18.501 Y0.564 E11.14150
G1 X10.322 Y14.729 E12.70546
G1 X7.415 Y13.051 E13.02644
G1 X8.565 Y11.059 E13.24635
G1 X0.560 Y6.438 E14.13010
G1 X-0.897 Y8.961 E14.40872
G1 X-4.070 Y1.888 E15.14999
G1 X3.114 Y1.065 E15.84133
G1 X0.180 Y-5.474 E16.52659
G1 X7.853 Y-6.352 E17.26501
G1 X7.464 Y-5.922 F7800.000
G1 F1800.000 E16.26501
G92 E0
G1 X-12.574 Y19.395 F7800.000
G1 F1800.000 E1.00000
G1 X-11.231 Y21.721 F540.000 E1.25680
G1 X-11.030 Y24.400 E1.51359
G1 X-12.012 Y26.900 E1.77039
G1 X-13.980 Y28.726 E2.02718
G1 X-16.547 Y29.518 E2.28400
G1 X-19.203 Y29.118 E2.54080
G1 X-21.422 Y27.605 E2.79759
G1 X-22.765 Y25.279 E3.05439
G1 X-22.795 Y24.879 E3.09269
G1 X-22.965 Y22.601 E3.31119
G1 X-21.984 Y20.101 E3.56799
G1 X-20.015 Y18.274 E3.82479
G1 X-17.449 Y17.482 E4.08158
G1 X-14.793 Y17.882 E4.33838
G1 X-12.655 Y19.340 E4.58577
G1 X-13.068 Y19.854 F7800.000
G1 X-11.875 Y21.920 F540.000 E4.81389
G1 X-11.697 Y24.299 E5.04201
G1 X-12.568 Y26.520 E5.27012
G1 X-14.317 Y28.143 E5.49824
G1 X-16.597 Y28.846 E5.72637
G1 X-18.957 Y28.491 E5.95449
G1 X-20.928 Y27.147 E6.18261
G1 X-22.121 Y25.080 E6.41073
G1 X-22.139 Y24.830 E6.43469
G1 X-22.299 Y22.701 E6.63885
G1 X-21.427 Y20.480 E6.86697
G1 X-19.678 Y18.857 E7.09509
G1 X-17.399 Y18.154 E7.32321
G1 X-15.039 Y18.510 E7.55133
G1 X-13.149 Y19.798 E7.77003
G1 X-13.562 Y20.312 F7800.000
G1 X-12.519 Y22.119 F540.000 E7.96947
G1 X-12.363 Y24.199 E8.16891
G1 X-13.125 Y26.140 E8.36835
G1 X-13.199 Y26.209 E8.37798
G1 X-14.654 Y27.559 E8.56779
G1 X-16.648 Y28.174 E8.76724
G1 X-18.710 Y27.863 E8.96668
G1 X-20.434 Y26.688 E9.16612
G1 X-21.477 Y24.882 E9.36556
G1 X-21.484 Y24.781 E9.37518
G1 X-21.633 Y22.802 E9.56500
G1 X-20.870 Y20.860 E9.76444
G1 X-19.341 Y19.441 E9.96388
G1 X-17.348 Y18.826 E10.16332
G1 X-15.286 Y19.137 E10.36276
G1 X-13.644 Y20.257 E10.55278
G1 X-13.802 Y20.924 F7800.000
G1 F1800.000 E9.55278
G92 E0
G1 X-24.243 Y26.029 F7800.000
G1 F1800.000 E1.00000
G1 X-25.214 Y23.362 F540.000 E1.27144
G1 X-25.682 Y20.635 E1.53592
G1 X-25.632 Y17.981 E1.78975
G1 X-25.081 Y15.522 E2.03071
G1 X-24.068 Y13.364 E2.25865
G1 X-22.650 Y11.589 E2.47582
G1 X-20.810 Y10.191 E2.69686
G1 X-7.139 Y2.298 E4.20617
G1 X-5.917 Y0.981 E4.37793
G1 X-1.044 Y11.844 E5.51631
G1 X1.041 Y8.233 E5.91502
G1 X6.770 Y11.540 E6.54747
G1 X5.620 Y13.532 E6.76738
G1 X10.803 Y16.525 E7.33966
G1 X14.047 Y10.906 E7.96000
G1 X14.527 Y11.143 E8.01116
G1 X13.481 Y13.667 E8.27244
G1 X12.590 Y16.493 E8.55574
G1 X12.391 Y16.449 E8.57521
G1 X12.201 Y18.187 E8.74239
G1 X11.531 Y20.248 E8.94957
G1 X10.449 Y22.121 E9.15643
G1 X9.002 Y23.729 E9.36329
G1 X7.184 Y25.049 E9.57802
G1 X-7.377 Y33.456 E11.18572
G1 X-9.509 Y34.351 E11.40676
G1 X-11.755 Y34.691 E11.62393
G1 X-14.130 Y34.489 E11.85187
G1 X-16.536 Y33.737 E12.09284
G1 X-18.859 Y32.453 E12.34667
G1 X-20.986 Y30.685 E12.61114
G1 X-22.811 Y28.510 E12.88258
G1 X-24.194 Y26.115 E13.14702
G1 F1800.000 E12.14702
G92 E0
G1 X-5.684 Y0.750 F7800.000
G1 F1800.000 E1.00000
G1 X-4.301 Y-1.077 F540.000 E1.21908
G1 X-3.177 Y-2.918 E1.42529
G1 X-2.239 Y-4.861 E1.63163
G1 X-1.678 Y-6.405 E1.78868
G1 X1.179 Y-0.036 E2.45616
G1 X-5.586 Y0.738 E3.10723
G1 F1800.000 E2.10723
G92 E0
G1 X4.034 Y3.049 F7800.000
G1 F1800.000 E1.00000
G1 X5.291 Y0.872 F540.000 E1.24043
G1 X11.020 Y4.179 E1.87288
G1 X9.763 Y6.357 E2.11331
G1 X4.119 Y3.099 E2.73633
G1 X3.716 Y2.286 F7800.000
G1 X5.051 Y-0.026 F540.000 E2.99156
G1 X11.917 Y3.938 E3.74966
G1 X10.003 Y7.254 E4.11574
G1 X3.137 Y3.290 E4.87384
G1 X3.667 Y2.371 E4.97526
G1 X3.147 Y1.957 F7800.000
G1 X4.810 Y-0.924 F540.000 E5.29332
G1 X12.815 Y3.698 E6.17707
G1 X10.244 Y8.152 E6.66880
G1 X2.239 Y3.530 E7.55255
G1 X3.098 Y2.043 E7.71681
G1 F1800.000 E6.71681
G92 E0
G1 X8.334 Y-4.399 F7800.000
G1 F1800.000 E1.00000
G1 X10.393 Y-7.965 F540.000 E1.39378
G1 X-1.577 Y-6.595 E2.54579
G1 X-1.180 Y-8.155 E2.69968
G1 X-1.180 Y-23.809 E4.19638
G1 X-0.890 Y-26.102 E4.41742
G1 X-0.061 Y-28.217 E4.63459
G1 X1.301 Y-30.173 E4.86252
G1 X3.155 Y-31.881 E5.10349
G1 X5.429 Y-33.250 E5.35732
G1 X8.024 Y-34.208 E5.62180
G1 X10.820 Y-34.701 E5.89324
G1 X13.684 Y-34.701 E6.16710
G1 X16.480 Y-34.208 E6.43854
G1 X19.075 Y-33.250 E6.70302
G1 X21.349 Y-31.880 E6.95685
G1 X23.203 Y-30.173 E7.19781
G1 X24.565 Y-28.217 E7.42575
G1 X25.394 Y-26.102 E7.64292
G1 X25.684 Y-23.809 E7.86396
G1 X25.684 Y-6.998 E9.47125
G1 X25.449 Y-4.761 E9.68639
G1 X24.781 Y-2.703 E9.89320
G1 X23.699 Y-0.830 E10.10006
G1 X22.255 Y0.774 E10.30641
G1 X20.858 Y1.775 E10.47079
G1 X21.002 Y1.940 E10.49170
G1 X18.977 Y4.150 E10.77833
G1 X17.312 Y6.318 E11.03971
G1 X16.868 Y6.021 E11.09085
G1 X20.296 Y0.083 E11.74647
G1 X15.113 Y-2.910 E12.31875
G1 X14.063 Y-1.091 E12.51954
G1 X8.419 Y-4.349 E13.14256
G1 F1800.000 E12.14256
G92 E0
G1 X-2.131 Y-7.084 F7800.000
G1 F1800.000 E1.00000
G1 X-1.837 Y-8.237 F540.000 E1.11381
G1 X-1.837 Y-23.850 E2.60660
G1 X-1.531 Y-26.266 E2.83942
G1 X-0.644 Y-28.529 E3.07181
G1 X0.803 Y-30.608 E3.31404
G1 X2.759 Y-32.409 E3.56826
G1 X5.143 Y-33.845 E3.83440
G1 X7.852 Y-34.845 E4.11046
G1 X10.763 Y-35.358 E4.39304
G1 X13.742 Y-35.358 E4.67789
G1 X16.652 Y-34.845 E4.96047
G1 X19.361 Y-33.845 E5.23653
G1 X21.745 Y-32.409 E5.50267
G1 X23.701 Y-30.608 E5.75689
G1 X25.148 Y-28.529 E5.99912
G1 X26.035 Y-26.266 E6.23151
G1 X26.341 Y-23.850 E6.46433
G1 X26.341 Y-6.964 E8.07887
G1 X26.096 Y-4.623 E8.30390
G1 X25.385 Y-2.435 E8.52394
G1 X24.233 Y-0.442 E8.74399
G1 X22.696 Y1.267 E8.96375
G1 X21.831 Y1.887 E9.06553
G1 X21.934 Y2.005 E9.08053
G1 X21.306 Y2.580 E9.16197
G1 X19.480 Y4.572 E9.42038
G1 X17.834 Y6.718 E9.67894
G1 X16.382 Y8.997 E9.93738
G1 X15.134 Y11.395 E10.19578
G1 X14.099 Y13.892 E10.45426
G1 X13.286 Y16.470 E10.71274
G1 X13.106 Y17.282 E10.79218
G1 X12.964 Y17.250 E10.80609
G1 X12.846 Y18.325 E10.90955
G1 X12.135 Y20.516 E11.12981
G1 X10.983 Y22.509 E11.34986
G1 X9.444 Y24.220 E11.56992
G1 X7.543 Y25.601 E11.79456
G1 X-7.085 Y34.046 E13.40952
G1 X-9.330 Y34.988 E13.64233
G1 X-11.733 Y35.352 E13.87472
G1 X-14.257 Y35.138 E14.11695
G1 X-16.795 Y34.345 E14.37117
G1 X-19.231 Y32.998 E14.63731
G1 X-21.451 Y31.152 E14.91337
G1 X-23.351 Y28.888 E15.19595
G1 X-24.841 Y26.308 E15.48080
G1 X-25.852 Y23.531 E15.76338
G1 X-26.340 Y20.685 E16.03944
G1 X-26.288 Y17.902 E16.30558
G1 X-25.706 Y15.308 E16.55980
G1 X-24.629 Y13.015 E16.80203
G1 X-23.113 Y11.115 E17.03442
G1 X-21.174 Y9.642 E17.26723
G1 X-7.553 Y1.778 E18.77105
G1 X-6.108 Y0.221 E18.97419
G1 X-4.844 Y-1.448 E19.17431
G1 X-3.754 Y-3.232 E19.37426
G1 X-2.846 Y-5.117 E19.57433
G1 X-2.164 Y-6.991 E19.76499
G1 X-2.774 Y-7.237 F7800.000
G1 X-2.494 Y-8.320 F378.000 E19.87188
G1 X-2.494 Y-23.892 E21.36077
G1 X-2.173 Y-26.429 E21.60536
G1 X-1.228 Y-28.841 E21.85297
G1 X0.305 Y-31.042 E22.10950
G1 X2.363 Y-32.937 E22.37697
G1 X4.858 Y-34.440 E22.65542
G1 X7.680 Y-35.482 E22.94306
G1 X10.705 Y-36.015 E23.23678
G1 X13.799 Y-36.015 E23.53262
G1 X16.824 Y-35.482 E23.82634
G1 X19.647 Y-34.440 E24.11398
G1 X22.141 Y-32.937 E24.39243
G1 X24.199 Y-31.042 E24.65990
G1 X25.732 Y-28.841 E24.91643
G1 X26.677 Y-26.429 E25.16404
G1 X26.999 Y-23.892 E25.40863
G1 X26.999 Y-6.930 E27.03043
G1 X26.742 Y-4.486 E27.26536
G1 X25.988 Y-2.166 E27.49861
G1 X24.768 Y-0.054 E27.73186
G1 X23.137 Y1.759 E27.96503
G1 X22.804 Y1.998 E28.00421
G1 X22.853 Y2.054 E28.01133
G1 X21.772 Y3.045 E28.15158
G1 X19.984 Y4.995 E28.40451
G1 X18.373 Y7.095 E28.65759
G1 X16.951 Y9.326 E28.91053
G1 X15.730 Y11.673 E29.16345
G1 X14.717 Y14.117 E29.41645
G1 X13.921 Y16.641 E29.66943
G1 X13.606 Y18.066 E29.80906
G1 X13.538 Y18.051 E29.81572
G1 X13.492 Y18.464 E29.85546
G1 X12.738 Y20.785 E30.08879
G1 X11.518 Y22.897 E30.32204
G1 X9.886 Y24.711 E30.55531
G1 X7.901 Y26.152 E30.78985
G1 X-6.792 Y34.636 E32.41206
G1 X-9.151 Y35.626 E32.65665
G1 X-11.711 Y36.013 E32.90426
G1 X-14.385 Y35.786 E33.16078
G1 X-17.055 Y34.952 E33.42826
G1 X-19.603 Y33.543 E33.70671
G1 X-21.917 Y31.620 E33.99435
G1 X-23.891 Y29.266 E34.28807
G1 X-25.438 Y26.587 E34.58391
G1 X-26.489 Y23.700 E34.87763
G1 X-26.998 Y20.735 E35.16527
G1 X-26.944 Y17.823 E35.44372
G1 X-26.332 Y15.094 E35.71119
G1 X-25.191 Y12.665 E35.96772
G1 X-23.576 Y10.641 E36.21533
G1 X-21.539 Y9.094 E36.45992
G1 X-7.968 Y1.259 E37.95823
G1 X-6.612 Y-0.202 E38.14877
G1 X-5.388 Y-1.818 E38.34260
G1 X-4.332 Y-3.547 E38.53631
G1 X-3.452 Y-5.373 E38.73009
G1 X-2.808 Y-7.145 E38.91037
G1 X-2.136 Y-7.393 F7800.000
G1 F1800.000 E37.91037
G92 E0
G1 X9.497 Y9.564 F7800.000
G1 F1800.000 E1.00000
G1 X10.024 Y8.701 F540.000 E1.09671
G1 X9.497 Y9.564 F7800.000
G1 X9.060 Y10.381 F540.000 E1.18527
G1 X9.060 Y10.381 F7800.000
G1 X9.031 Y10.398 F540.000 E1.18849
G1 X9.031 Y10.398 F7800.000
G1 X8.929 Y10.590 F540.000 E1.20935
G1 X13.174 Y3.228 F7800.000
G1 X13.284 Y3.017 F540.000 E1.23206
G1 X13.284 Y3.017 F7800.000
G1 X13.442 Y2.793 F540.000 E1.25834
G1 X13.442 Y2.793 F7800.000
G1 X13.769 Y2.154 F540.000 E1.32691
G1 X13.769 Y2.154 F7800.000
G1 X14.324 Y1.251 F540.000 E1.42832
G1 F1800.000 E0.42832
G92 E0
G1 X5.002 Y11.069 F7800.000
G1 F1800.000 E1.00000
G1 X5.946 Y12.014 F1080.000 E1.12829
G1 X5.605 Y12.605 E1.19387
G1 X2.794 Y9.794 E1.57555
G1 X1.118 Y9.052 E1.75149
G1 X5.263 Y13.197 E2.31428
G1 X6.870 Y14.803 F7800.000
G1 X11.345 Y19.279 F1080.000 E2.92194
G1 X11.116 Y19.983 E2.99304
G1 X0.777 Y9.644 E4.39693
G1 X0.435 Y10.235 E4.46251
G1 X10.786 Y20.586 E5.86789
G1 X10.444 Y21.177 E5.93347
G1 X0.094 Y10.827 E7.33882
G1 X-0.248 Y11.418 E7.40440
G1 X10.102 Y21.769 E8.80974
G1 X9.672 Y22.272 E8.87328
G1 X-0.589 Y12.010 E10.26661
G1 X-0.931 Y12.601 E10.33219
G1 X9.230 Y22.763 E11.71189
G1 X8.789 Y23.254 E11.77533
G1 X-9.978 Y4.487 E14.32349
G1 X-10.570 Y4.829 E14.38907
G1 X8.272 Y23.671 E16.94740
G1 X7.731 Y24.063 E17.01154
G1 X-11.162 Y5.170 E19.57679
G1 X-11.753 Y5.512 E19.64237
G1 X7.191 Y24.456 E22.21455
G1 X6.624 Y24.822 E22.27933
G1 X-12.345 Y5.853 E24.85491
G1 X-12.936 Y6.195 E24.92049
G1 X6.033 Y25.164 E27.49607
G1 X5.441 Y25.505 E27.56166
G1 X-13.528 Y6.536 E30.13724
G1 X-14.119 Y6.878 E30.20282
G1 X4.850 Y25.847 E32.77840
G1 X4.258 Y26.188 E32.84398
G1 X-14.711 Y7.219 E35.41956
G1 X-15.302 Y7.561 E35.48515
G1 X3.666 Y26.530 E38.06073
G1 X3.075 Y26.871 E38.12631
G1 X-15.894 Y7.902 E40.70189
G1 X-16.486 Y8.244 E40.76747
G1 X2.483 Y27.213 E43.34305
G1 X1.892 Y27.554 E43.40863
G1 X-17.077 Y8.586 E45.98421
G1 X-17.669 Y8.927 E46.04980
G1 X1.300 Y27.896 E48.62538
