; generated by Slic3r 0.9.9-dev on 2013-06-15 at 17:41:58

; layer_height = 0.4
; perimeters = 3
; top_solid_layers = 3
; bottom_solid_layers = 3
; fill_density = 0.4
; perimeter_speed = 30
; infill_speed = 60
; travel_speed = 130
; scale = 1
; nozzle_diameter = 0.5
; filament_diameter = 1.8
; extrusion_multiplier = 1
; perimeters extrusion width = 0.53mm
; infill extrusion width = 0.53mm
; first layer extrusion width = 0.80mm

M107
M104 S200 ; set temperature
G28 ; home all axes
M109 S200 ; wait for temperature to be reached
G90 ; use absolute coordinates
G21 ; set units to millimeters
G92 E0
M82 ; use absolute distances for extrusion
G1 F1800.000 E-1.00000
G92 E0
G1 Z0.400 F7800.000
G1 X18.493 Y24.116
G1 F1800.000 E1.00000
G1 X17.293 Y26.206 F540.000 E1.27867
G1 X16.993 Y26.676 E1.34315
G1 X16.473 Y27.336 E1.44031
G1 X14.853 Y29.146 E1.72119
G1 X14.443 Y29.566 E1.78906
G1 X14.003 Y29.946 E1.85628
G1 X11.793 Y31.546 E2.17177
G1 X11.223 Y31.916 E2.25035
G1 X-3.457 Y40.396 E4.21069
G1 X-4.217 Y40.776 E4.30894
G1 X-6.567 Y41.766 E4.60381
G1 X-7.197 Y41.996 E4.68136
G1 X-7.517 Y42.086 E4.71980
G1 X-8.177 Y42.216 E4.79758
G1 X-10.717 Y42.596 E5.09455
G1 X-11.347 Y42.666 E5.16785
G1 X-11.977 Y42.666 E5.24070
G1 X-14.957 Y42.416 E5.58649
G1 X-15.247 Y42.386 E5.62021
G1 X-15.827 Y42.286 E5.68826
G1 X-16.387 Y42.136 E5.75530
G1 X-19.037 Y41.306 E6.07640
G1 X-19.547 Y41.126 E6.13894
G1 X-20.277 Y40.776 E6.23255
G1 X-22.817 Y39.376 E6.56792
G1 X-23.257 Y39.116 E6.62701
G1 X-23.867 Y38.656 E6.71536
G1 X-26.537 Y36.426 E7.11761
G1 X-27.027 Y35.896 E7.20108
G1 X-28.997 Y33.546 E7.55566
G1 X-29.667 Y32.586 E7.69103
G1 X-31.207 Y29.926 E8.04644
G1 X-31.427 Y29.516 E8.10024
G1 X-31.707 Y28.866 E8.18208
G1 X-32.757 Y25.986 E8.53654
G1 X-32.907 Y25.516 E8.59359
G1 X-33.027 Y25.046 E8.64968
G1 X-33.607 Y21.606 E9.05307
G1 X-33.637 Y21.356 E9.08219
G1 X-33.657 Y20.856 E9.14005
G1 X-33.607 Y17.706 E9.50434
G1 X-33.577 Y17.156 E9.56803
G1 X-33.507 Y16.616 E9.63099
G1 X-32.837 Y13.636 E9.98418
G1 X-32.597 Y12.806 E10.08408
G1 X-32.367 Y12.266 E10.15195
G1 X-31.237 Y9.846 E10.46079
G1 X-30.967 Y9.326 E10.52854
G1 X-6.997 Y-32.184 E16.07121
G1 X-6.697 Y-32.654 E16.13569
G1 X-5.007 Y-35.084 E16.47794
G1 X-4.817 Y-35.324 E16.51334
G1 X-4.417 Y-35.764 E16.58210
G1 X-1.947 Y-38.024 E16.96923
G1 X-1.527 Y-38.354 E17.03099
G1 X-1.087 Y-38.644 E17.09192
G1 X1.393 Y-40.144 E17.42707
G1 X2.083 Y-40.514 E17.51760
G1 X5.373 Y-41.734 E17.92334
G1 X5.833 Y-41.884 E17.97929
G1 X6.293 Y-42.004 E18.03426
G1 X9.763 Y-42.614 E18.44166
G1 X10.233 Y-42.664 E18.49631
G1 X10.703 Y-42.684 E18.55071
G1 X13.783 Y-42.684 E18.90685
G1 X14.253 Y-42.664 E18.96125
G1 X14.713 Y-42.614 E19.01475
G1 X18.203 Y-42.004 E19.42443
G1 X18.663 Y-41.884 E19.47940
G1 X19.123 Y-41.734 E19.53534
G1 X22.413 Y-40.514 E19.94109
G1 X23.103 Y-40.144 E20.03162
G1 X25.803 Y-38.504 E20.39691
G1 X26.243 Y-38.194 E20.45915
G1 X26.443 Y-38.024 E20.48950
G1 X28.913 Y-35.764 E20.87662
G1 X29.313 Y-35.324 E20.94538
G1 X29.503 Y-35.084 E20.98078
G1 X31.373 Y-32.394 E21.35960
G1 X31.683 Y-31.844 E21.43261
G1 X31.813 Y-31.564 E21.46831
G1 X32.993 Y-28.554 E21.84215
G1 X33.173 Y-27.914 E21.91902
G1 X33.283 Y-27.264 E21.99525
G1 X33.603 Y-24.744 E22.28899
G1 X33.663 Y-23.894 E22.38752
G1 X33.663 Y-6.934 E24.34864
G1 X33.623 Y-6.214 E24.43202
G1 X33.363 Y-3.784 E24.71461
G1 X33.223 Y-2.954 E24.81194
G1 X33.153 Y-2.684 E24.84419
G1 X32.223 Y0.146 E25.18865
G1 X32.123 Y0.406 E25.22086
G1 X31.883 Y0.916 E25.28604
G1 X18.548 Y24.021 E28.37069
G1 X18.493 Y24.116 E28.38345
G1 F1800.000 E27.38345
G92 E0
G1 X13.647 Y-21.050 F7800.000
G1 F1800.000 E1.00000
G1 X10.857 Y-21.050 F540.000 E1.32263
G1 X8.343 Y-22.261 E1.64526
G1 X6.604 Y-24.442 E1.96789
G1 X5.983 Y-27.162 E2.29051
G1 X6.604 Y-29.883 E2.61314
G1 X8.343 Y-32.064 E2.93576
G1 X10.857 Y-33.275 E3.25841
G1 X13.647 Y-33.275 E3.58103
G1 X16.161 Y-32.064 E3.90365
G1 X17.901 Y-29.883 E4.22626
G1 X18.521 Y-27.162 E4.54892
G1 X17.901 Y-24.442 E4.87157
G1 X16.161 Y-22.261 E5.19417
G1 X13.747 Y-21.098 E5.50404
G1 X13.647 Y-21.050 E5.51680
G1 X13.479 Y-21.786 F7800.000
G1 X11.025 Y-21.786 F540.000 E5.80060
G1 X8.814 Y-22.851 E6.08440
G1 X7.283 Y-24.770 E6.36820
G1 X6.737 Y-27.162 E6.65200
G1 X7.283 Y-29.555 E6.93580
G1 X8.814 Y-31.474 E7.21959
G1 X11.025 Y-32.539 E7.50341
G1 X13.479 Y-32.539 E7.78719
G1 X15.691 Y-31.474 E8.07099
G1 X17.221 Y-29.555 E8.35478
G1 X17.767 Y-27.162 E8.63859
G1 X17.221 Y-24.769 E8.92241
G1 X15.691 Y-22.851 E9.20619
G1 X13.579 Y-21.834 E9.47723
G1 X13.479 Y-21.786 E9.48999
G1 X13.311 Y-22.521 F7800.000
G1 X11.193 Y-22.521 F540.000 E9.73496
G1 X9.284 Y-23.441 E9.97993
G1 X7.963 Y-25.097 E10.22490
G1 X7.492 Y-27.162 E10.46987
G1 X7.963 Y-29.228 E10.71484
G1 X9.284 Y-30.884 E10.95981
G1 X11.193 Y-31.803 E11.20478
G1 X13.311 Y-31.803 E11.44975
G1 X15.220 Y-30.884 E11.69472
G1 X16.541 Y-29.228 E11.93968
G1 X17.012 Y-27.162 E12.18466
G1 X16.541 Y-25.097 E12.42963
G1 X15.220 Y-23.441 E12.67460
G1 X13.411 Y-22.569 E12.90681
G1 X13.311 Y-22.521 E12.91957
G1 X13.043 Y-21.837 F7800.000
G1 F1800.000 E11.91957
G92 E0
G1 X9.451 Y-7.347 F7800.000
G1 F1800.000 E1.00000
G1 X7.641 Y-4.213 F540.000 E1.41845
G1 X14.248 Y-0.399 E2.30058
G1 X15.298 Y-2.217 E2.54341
G1 X19.603 Y0.268 E3.11824
G1 X10.618 Y15.832 E5.19629
G1 X6.313 Y13.346 E5.77113
G1 X7.463 Y11.354 E6.03708
G1 X0.856 Y7.540 E6.91921
G1 X-0.987 Y10.732 E7.34536
G1 X-5.258 Y1.211 E8.55194
G1 X1.926 Y0.389 E9.38802
G1 X-1.008 Y-6.150 E10.21675
G1 X9.341 Y-7.334 E11.42127
G1 X9.451 Y-7.347 E11.43403
G1 X8.084 Y-6.450 F7800.000
G1 X6.637 Y-3.944 F540.000 E11.76867
G1 X14.517 Y0.606 E12.82093
G1 X15.567 Y-1.212 E13.06375
G1 X18.598 Y0.538 E13.46847
G1 X10.348 Y14.827 E15.37639
G1 X7.317 Y13.077 E15.78111
G1 X8.467 Y11.085 E16.04706
G1 X0.587 Y6.535 E17.09931
G1 X-0.905 Y9.118 E17.44416
G1 X-4.175 Y1.828 E18.36809
G1 X3.008 Y1.006 E19.20417
G1 X0.075 Y-5.533 E20.03290
G1 X7.974 Y-6.438 E20.95226
G1 X8.084 Y-6.450 E20.96502
G1 X8.784 Y-6.225 F7800.000
G1 F1800.000 E19.96502
G92 E0
G1 X-12.402 Y19.236 F7800.000
G1 F1800.000 E1.00000
G1 X-11.007 Y21.652 F540.000 E1.32261
G1 X-10.799 Y24.435 E1.64525
G1 X-11.818 Y27.032 E1.96788
G1 X-13.863 Y28.930 E2.29050
G1 X-16.530 Y29.752 E2.61315
G1 X-19.288 Y29.336 E2.93577
G1 X-21.594 Y27.764 E3.25839
G1 X-22.989 Y25.348 E3.58103
G1 X-23.197 Y22.566 E3.90365
G1 X-22.178 Y19.968 E4.22629
G1 X-20.133 Y18.071 E4.54890
G1 X-17.467 Y17.248 E4.87152
G1 X-14.707 Y17.664 E5.19418
G1 X-12.493 Y19.174 E5.50404
G1 X-12.402 Y19.236 E5.51680
G1 X-12.955 Y19.749 F7800.000
G1 X-11.728 Y21.875 F540.000 E5.80059
G1 X-11.545 Y24.322 E6.08439
G1 X-12.441 Y26.607 E6.36819
G1 X-14.240 Y28.276 E6.65198
G1 X-16.586 Y29.000 E6.93580
G1 X-19.013 Y28.634 E7.21959
G1 X-21.041 Y27.251 E7.50339
G1 X-22.268 Y25.126 E7.78719
G1 X-22.451 Y22.678 E8.07099
G1 X-21.554 Y20.393 E8.35479
G1 X-19.755 Y18.724 E8.63858
G1 X-17.410 Y18.001 E8.92238
G1 X-14.983 Y18.367 E9.20619
G1 X-13.046 Y19.687 E9.47723
G1 X-12.955 Y19.749 E9.48999
G1 X-13.508 Y20.262 F7800.000
G1 X-12.449 Y22.097 F540.000 E9.73495
G1 X-12.291 Y24.210 E9.97992
G1 X-13.065 Y26.182 E10.22489
G1 X-14.618 Y27.623 E10.46986
G1 X-16.642 Y28.247 E10.71484
G1 X-18.737 Y27.931 E10.95980
G1 X-20.487 Y26.738 E11.20477
G1 X-21.547 Y24.903 E11.44974
G1 X-21.705 Y22.791 E11.69471
G1 X-20.931 Y20.819 E11.93968
G1 X-19.378 Y19.378 E12.18465
G1 X-17.354 Y18.753 E12.42962
G1 X-15.259 Y19.069 E12.67459
G1 X-13.600 Y20.200 E12.90680
G1 X-13.508 Y20.262 E12.91956
G1 X-12.781 Y20.153 F7800.000
G1 F1800.000 E11.91956
G92 E0
G1 X-11.762 Y34.461 F7800.000
G1 F1800.000 E1.00000
G1 X-14.086 Y34.264 F540.000 E1.26964
G1 X-16.445 Y33.526 E1.55548
G1 X-18.729 Y32.263 E1.85728
G1 X-20.824 Y30.522 E2.17226
G1 X-22.623 Y28.378 E2.49585
G1 X-24.035 Y25.932 E2.82242
G1 X-24.992 Y23.303 E3.14601
G1 X-25.453 Y20.618 E3.46098
G1 X-25.404 Y18.009 E3.76278
G1 X-24.863 Y15.596 E4.04862
G1 X-23.872 Y13.486 E4.31827
G1 X-22.490 Y11.754 E4.57451
G1 X-20.683 Y10.381 E4.83687
G1 X-6.995 Y2.479 E6.66449
G1 X-5.984 Y1.390 E6.83628
G1 X-1.069 Y12.345 E8.22478
G1 X1.125 Y8.545 E8.73223
G1 X6.458 Y11.624 E9.44424
G1 X5.308 Y13.616 E9.71019
G1 X10.887 Y16.837 E10.45515
G1 X12.688 Y13.718 E10.87158
G1 X13.160 Y13.926 E10.93123
G1 X12.430 Y16.241 E11.21193
G1 X12.081 Y17.815 E11.39832
G1 X11.321 Y20.154 E11.68275
G1 X10.263 Y21.986 E11.92736
G1 X8.848 Y23.558 E12.17197
G1 X7.060 Y24.857 E12.42750
G1 X-7.479 Y33.251 E14.36875
G1 X-9.571 Y34.129 E14.63111
G1 X-11.653 Y34.444 E14.87460
G1 X-11.762 Y34.461 E14.88736
G1 F1800.000 E13.88736
G92 E0
G1 X18.976 Y-33.044 F7800.000
G1 F1800.000 E1.00000
G1 X21.211 Y-31.697 F540.000 E1.30179
G1 X23.030 Y-30.022 E1.58764
G1 X24.362 Y-28.108 E1.85728
G1 X25.171 Y-26.045 E2.11352
G1 X25.456 Y-23.794 E2.37589
G1 X25.456 Y-7.010 E4.31664
G1 X25.225 Y-4.808 E4.57266
G1 X24.571 Y-2.797 E4.81721
G1 X23.513 Y-0.965 E5.06182
G1 X21.863 Y0.868 E5.34702
G1 X20.680 Y1.953 E5.53269
G1 X19.038 Y3.745 E5.81366
G1 X18.622 Y3.440 E5.87330
G1 X20.608 Y-0.001 E6.33267
G1 X15.029 Y-3.222 E7.07762
G1 X13.979 Y-1.403 E7.32045
G1 X8.646 Y-4.482 E8.03246
G1 X10.818 Y-8.244 E8.53471
G1 X-1.274 Y-6.860 E9.94207
G1 X-0.952 Y-8.126 E10.09318
G1 X-0.952 Y-23.794 E11.90488
G1 X-0.666 Y-26.045 E12.16724
G1 X0.142 Y-28.108 E12.42348
G1 X1.475 Y-30.022 E12.69312
G1 X3.293 Y-31.697 E12.97897
G1 X5.529 Y-33.044 E13.28076
G1 X8.084 Y-33.987 E13.59574
G1 X10.840 Y-34.473 E13.91933
G1 X13.664 Y-34.473 E14.24590
G1 X16.420 Y-33.987 E14.56949
G1 X18.872 Y-33.082 E14.87170
G1 X18.976 Y-33.044 E14.88446
G1 F1800.000 E13.88446
G92 E0
G1 X-5.179 Y0.462 F7800.000
G1 F1800.000 E1.00000
G1 X-4.112 Y-0.948 F540.000 E1.20451
G1 X-2.976 Y-2.808 E1.45652
G1 X-2.028 Y-4.773 E1.70871
G1 X-1.656 Y-5.797 E1.83478
G1 X0.843 Y-0.227 E2.54069
G1 X-5.070 Y0.449 E3.22884
G1 X-5.179 Y0.462 E3.24159
G1 X-5.993 Y0.318 F7800.000
G1 X-4.720 Y-1.363 F540.000 E3.48534
G1 X-3.622 Y-3.160 E3.72889
G1 X-2.707 Y-5.059 E3.97258
G1 X-1.987 Y-7.040 E4.21628
G1 X-1.687 Y-8.219 E4.35696
G1 X-1.687 Y-23.841 E6.16337
G1 X-1.385 Y-26.228 E6.44168
G1 X-0.511 Y-28.458 E6.71853
G1 X0.917 Y-30.509 E7.00752
G1 X2.850 Y-32.288 E7.31131
G1 X5.209 Y-33.710 E7.62977
G1 X7.891 Y-34.700 E7.96043
G1 X10.776 Y-35.208 E8.29910
G1 X13.729 Y-35.208 E8.64055
G1 X16.613 Y-34.700 E8.97922
G1 X19.296 Y-33.710 E9.30988
G1 X21.655 Y-32.288 E9.62834
G1 X23.587 Y-30.509 E9.93213
G1 X25.015 Y-28.458 E10.22113
G1 X25.889 Y-26.228 E10.49797
G1 X26.191 Y-23.841 E10.77628
G1 X26.191 Y-6.972 E12.72686
G1 X25.948 Y-4.655 E12.99627
G1 X25.247 Y-2.496 E13.25872
G1 X24.111 Y-0.530 E13.52120
G1 X22.386 Y1.387 E13.81940
G1 X21.200 Y2.474 E14.00546
G1 X19.365 Y4.476 E14.31948
G1 X17.711 Y6.632 E14.63370
G1 X16.252 Y8.922 E14.94776
G1 X14.998 Y11.331 E15.26177
G1 X13.958 Y13.841 E15.57589
G1 X13.141 Y16.431 E15.89000
G1 X12.792 Y18.008 E16.07675
G1 X11.997 Y20.455 E16.37422
G1 X10.861 Y22.421 E16.63670
G1 X9.343 Y24.108 E16.89920
G1 X7.461 Y25.475 E17.16813
G1 X-7.152 Y33.911 E19.11921
G1 X-9.371 Y34.843 E19.39751
G1 X-11.738 Y35.201 E19.67436
G1 X-14.228 Y34.990 E19.96335
G1 X-16.736 Y34.206 E20.26714
G1 X-19.146 Y32.874 E20.58560
G1 X-21.345 Y31.046 E20.91626
G1 X-23.228 Y28.802 E21.25493
G1 X-24.704 Y26.244 E21.59638
G1 X-25.706 Y23.492 E21.93505
G1 X-26.190 Y20.674 E22.26571
G1 X-26.138 Y17.920 E22.58417
G1 X-25.563 Y15.357 E22.88796
G1 X-24.501 Y13.094 E23.17696
G1 X-23.007 Y11.223 E23.45381
G1 X-21.091 Y9.767 E23.73211
G1 X-7.459 Y1.897 E25.55229
G1 X-6.068 Y0.398 E25.78869
G1 X-5.993 Y0.318 E25.80145
G1 X-6.557 Y-0.156 F7800.000
G1 X-5.329 Y-1.778 F540.000 E26.03669
G1 X-4.269 Y-3.513 E26.27177
G1 X-3.386 Y-5.345 E26.50696
G1 X-2.691 Y-7.256 E26.74215
G1 X-2.423 Y-8.311 E26.86795
G1 X-2.423 Y-23.887 E28.66907
G1 X-2.103 Y-26.412 E28.96332
G1 X-1.164 Y-28.807 E29.26077
G1 X0.359 Y-30.995 E29.56912
G1 X2.406 Y-32.880 E29.89086
G1 X4.889 Y-34.376 E30.22598
G1 X7.698 Y-35.413 E30.57233
G1 X10.711 Y-35.944 E30.92608
G1 X13.793 Y-35.944 E31.28241
G1 X16.806 Y-35.413 E31.63615
G1 X19.616 Y-34.376 E31.98250
G1 X22.098 Y-32.880 E32.31763
G1 X24.145 Y-30.995 E32.63936
G1 X25.669 Y-28.807 E32.94771
G1 X26.607 Y-26.412 E33.24516
G1 X26.927 Y-23.887 E33.53941
G1 X26.927 Y-6.933 E35.49981
G1 X26.672 Y-4.501 E35.78262
G1 X25.923 Y-2.195 E36.06297
G1 X24.710 Y-0.096 E36.34332
G1 X22.910 Y1.905 E36.65453
G1 X21.721 Y2.995 E36.84098
G1 X19.929 Y4.949 E37.14758
G1 X18.314 Y7.054 E37.45437
G1 X16.889 Y9.290 E37.76099
G1 X15.665 Y11.642 E38.06759
G1 X14.650 Y14.093 E38.37428
G1 X13.852 Y16.622 E38.68095
G1 X13.502 Y18.202 E38.86806
G1 X12.673 Y20.756 E39.17858
G1 X11.460 Y22.855 E39.45893
G1 X9.838 Y24.658 E39.73930
G1 X7.862 Y26.092 E40.02165
G1 X-6.824 Y34.571 E41.98254
G1 X-9.170 Y35.557 E42.27679
G1 X-11.714 Y35.941 E42.57425
G1 X-14.371 Y35.716 E42.88259
G1 X-17.026 Y34.886 E43.20432
G1 X-19.563 Y33.484 E43.53945
G1 X-21.866 Y31.569 E43.88580
G1 X-23.833 Y29.225 E44.23955
G1 X-25.373 Y26.557 E44.59588
G1 X-26.420 Y23.682 E44.94963
G1 X-26.926 Y20.730 E45.29597
G1 X-26.873 Y17.832 E45.63110
G1 X-26.264 Y15.117 E45.95283
G1 X-25.130 Y12.703 E46.26118
G1 X-23.525 Y10.693 E46.55863
G1 X-21.499 Y9.154 E46.85288
G1 X-7.923 Y1.315 E48.66562
G1 X-6.632 Y-0.075 E48.88495
G1 X-6.557 Y-0.156 E48.89770
G1 X-5.831 Y-0.040 F7800.000
G1 F1800.000 E47.89770
G92 E0
G1 X4.346 Y2.966 F7800.000
G1 F1800.000 E1.00000
G1 X5.375 Y1.184 F540.000 E1.23792
G1 X10.708 Y4.262 E1.94992
G1 X9.679 Y6.044 E2.18784
G1 X4.442 Y3.021 E2.88709
G1 X4.346 Y2.966 E2.89984
G1 X3.814 Y2.417 F7800.000
G1 X5.106 Y0.179 F540.000 E3.19868
G1 X11.713 Y3.993 E4.08081
G1 X9.948 Y7.049 E4.48885
G1 X3.341 Y3.235 E5.37098
G1 X3.758 Y2.513 E5.46742
G1 X3.814 Y2.417 E5.48018
G1 X3.177 Y2.049 F7800.000
G1 X4.837 Y-0.826 F540.000 E5.86408
G1 X12.717 Y3.724 E6.91633
G1 X10.217 Y8.054 E7.49449
G1 X2.337 Y3.504 E8.54674
G1 X3.121 Y2.145 E8.72824
G1 X3.177 Y2.049 E8.74100
G1 X3.912 Y2.049 F7800.000
G1 F1800.000 E7.74100
G92 E0
G1 X9.408 Y9.712 F7800.000
G1 F1800.000 E1.00000
G1 X10.028 Y8.712 F540.000 E1.13601
G1 X9.408 Y9.712 F7800.000
G1 X8.937 Y10.582 F540.000 E1.25047
G1 F1800.000 E0.25047
G92 E0
G1 X13.178 Y3.219 F7800.000
G1 F1800.000 E1.00000
G1 X13.315 Y2.961 F540.000 E1.03382
G1 X13.497 Y2.634 E1.07700
G1 X13.679 Y2.395 E1.11182
G1 X13.679 Y2.309 E1.12178
G1 X14.325 Y1.255 E1.26465
G1 F1800.000 E0.26465
G92 E0
G1 X5.219 Y11.659 F7800.000
G1 F1800.000 E1.00000
G1 X5.687 Y12.127 F1080.000 E1.07682
G1 X5.305 Y12.788 E1.16538
G1 X2.750 Y10.234 E1.58437
G1 X1.024 Y9.551 E1.79957
G1 X4.923 Y13.450 E2.43895
G1 X4.541 Y14.111 F7800.000
G1 X0.642 Y10.212 F1080.000 E3.07833
G1 X0.261 Y10.874 E3.16689
G1 X10.365 Y20.978 E4.82390
G1 X9.983 Y21.639 E4.91246
G1 X-0.121 Y11.535 E6.56944
G1 X-0.503 Y12.197 F7800.000
G1 X9.514 Y22.213 F1080.000 E8.21207
G1 X9.019 Y22.762 E8.29773
G1 X-0.885 Y12.858 E9.92195
G1 X-1.267 Y13.519 F7800.000
G1 X8.512 Y23.298 F1080.000 E11.52550
G1 X7.907 Y23.737 E11.61212
G1 X-10.720 Y5.109 E14.66680
G1 X-11.382 Y5.491 E14.75536
G1 X7.303 Y24.175 E17.81939
G1 X6.680 Y24.596 E17.90653
G1 X-12.043 Y5.873 E20.97690
G1 X-12.704 Y6.255 E21.06546
G1 X6.019 Y24.978 E24.13583
G1 X5.357 Y25.360 E24.22439
G1 X-13.366 Y6.637 E27.29476
G1 X-14.027 Y7.019 E27.38332
G1 X4.696 Y25.742 E30.45370
G1 X4.034 Y26.123 E30.54225
G1 X-14.689 Y7.400 E33.61263
G1 X-15.350 Y7.782 E33.70119
G1 X3.373 Y26.505 E36.77156
G1 X2.712 Y26.887 E36.86012
G1 X-16.011 Y8.164 E39.93049
G1 X-16.673 Y8.546 E40.01905
G1 X2.050 Y27.269 E43.08942
G1 X1.389 Y27.651 E43.17798
G1 X-17.334 Y8.928 E46.24835
G1 X-17.996 Y9.310 E46.33691
G1 X0.727 Y28.033 E49.40728
G1 X0.066 Y28.415 E49.49584
G1 X-18.657 Y9.692 E52.56621
G1 X-19.318 Y10.074 E52.65477
G1 X-0.595 Y28.796 E55.72514
G1 X-1.257 Y29.178 E55.81370
G1 X-19.980 Y10.455 E58.88408
G1 F1800.000 E57.88408
G92 E0
G1 X-14.297 Y17.181 F7800.000
G1 F1800.000 E1.00000
G1 X-20.627 Y10.851 F1080.000 E2.03807
G1 X-21.220 Y11.301 E2.12441
G1 X-15.526 Y16.996 E3.05824
G1 X-16.754 Y16.811 E3.20229
G1 X-21.813 Y11.752 E4.03190
G1 X-22.362 Y12.246 E4.11756
G1 X-17.739 Y16.869 E4.87570
